static/logos/ahrefs-wordmark-color.svg

<svg width="100" height="26" viewBox="0 0 100 26" fill="none" xmlns="http://www.w3.org/2000/svg">
<g clip-path="url(#clip0_1_3609)">
<path d="M1.68004 9.78804H11.3457V12.4972L7.70201 12.7813C1.83277 13.2182 0 14.7694 0 19.1391V20.0131C0 23.2029 2.22551 25.1256 5.67286 25.1256C8.37839 25.1256 9.94935 24.492 11.8694 22.5256H12.1967V24.6012H16.0804V5.52759H1.68004V9.78804ZM11.3457 18.9862C10.1457 20.1878 8.35658 20.9744 6.87291 20.9744C5.28015 20.9744 4.60375 20.3845 4.64739 19.0517C4.69103 17.2165 5.36739 16.7795 8.44387 16.4955L11.3675 16.2115V18.9862H11.3457Z" fill="#F18618"/>
<path fill-rule="evenodd" clip-rule="evenodd" d="M24.3827 5.67985H31.8834V9.53864H35.9846V24.6053H31.2035V9.92884H24.3827V24.6053H19.6016V0H24.3827V5.67985ZM94.2136 13.3108L91.3186 13.0289C89.7176 12.8771 89.3227 12.4653 89.3227 11.2079C89.3227 9.77709 89.893 9.43025 92.1302 9.43025C94.1257 9.43025 94.696 9.75543 94.981 11.0995H99.4774C99.3674 6.56864 97.9418 5.4197 92.3714 5.4197C86.2744 5.4197 84.7392 6.56864 84.7392 11.2079C84.7392 15.4569 85.8573 16.6059 90.3975 17.0394L92.7659 17.2563C94.8935 17.4514 95.4197 17.8416 95.4197 19.1206C95.4197 20.6598 94.784 21.0717 92.1739 21.0717C89.893 21.0717 89.279 20.7249 89.1694 19.2507H84.6292C84.7393 23.9333 86.1865 25.1256 91.9764 25.1256C98.4026 25.1256 100.004 23.8466 100.004 18.687C100.004 14.8499 98.8413 13.7443 94.2136 13.3108ZM69.6282 13.6576C69.6282 7.54417 67.5006 5.39799 61.4036 5.39799C55.3724 5.39799 53.0257 8.17286 53.0257 15.0884C53.0257 22.6326 55.1091 25.1256 61.8644 25.1256C66.7111 25.1256 68.7729 23.6515 69.4523 19.5325H64.8468C64.3207 20.8116 63.7724 21.0934 61.7985 21.0934C58.8377 21.0934 58.0699 20.2696 57.8945 16.736H69.3428C69.5181 15.6954 69.6061 14.6765 69.6282 13.6576ZM57.9166 12.9855C57.9604 10.319 59.0347 9.34352 61.6011 9.34352C64.0573 9.34352 65.0443 10.3408 65.1322 12.9855H57.9166ZM72.4131 6.52528V24.627H77.1945V9.75543H82.9408V5.70151H77.1945V5.18121C77.2382 4.0756 77.5237 3.75042 78.4448 3.75042H83.6644V0.02168H78.0498C74.2116 1.32164e-06 72.4131 1.17065 72.4131 6.52528ZM44.2529 24.6053H39.4718V5.67985H51.3588V10.124H44.2529V24.6053Z" fill="#1F49D2"/>
</g>
<defs>
<clipPath id="clip0_1_3609">
<rect width="100" height="25.1256" fill="white"/>
</clipPath>
</defs>
</svg>

<svg xmlns="http://www.w3.org/2000/svg" width="246.154" height="64" fill="none" viewBox="0 0 100 26"><g clip-path="url(#a)"><path fill="#F18618" d="M1.68 9.788h9.666v2.71l-3.644.283C1.832 13.218 0 14.77 0 19.14v.874c0 3.19 2.226 5.113 5.673 5.113 2.705 0 4.276-.634 6.196-2.6h.328V24.6h3.883V5.528H1.68v4.26Zm9.666 9.198c-1.2 1.202-2.99 1.988-4.473 1.988-1.593 0-2.27-.59-2.226-1.922.044-1.835.72-2.273 3.797-2.556l2.923-.284v2.774h-.021Z"/><path fill="#1F49D2" fill-rule="evenodd" d="M24.383 5.68h7.5v3.859h4.102v15.066h-4.782V9.93h-6.82v14.676h-4.781V0h4.78v5.68Zm69.83 7.63-2.894-.281c-1.601-.152-1.996-.564-1.996-1.821 0-1.43.57-1.778 2.807-1.778 1.996 0 2.566.325 2.851 1.67h4.496c-.11-4.531-1.535-5.68-7.106-5.68-6.097 0-7.632 1.149-7.632 5.788 0 4.249 1.118 5.398 5.658 5.831l2.369.217c2.127.195 2.654.586 2.654 1.865 0 1.539-.636 1.95-3.246 1.95-2.281 0-2.895-.346-3.005-1.82h-4.54c.11 4.682 1.557 5.875 7.347 5.875 6.427 0 8.028-1.28 8.028-6.439 0-3.837-1.163-4.943-5.79-5.376Zm-24.585.348c0-6.114-2.127-8.26-8.224-8.26-6.032 0-8.378 2.775-8.378 9.69 0 7.545 2.083 10.038 8.838 10.038 4.847 0 6.909-1.475 7.588-5.594h-4.605c-.526 1.28-1.075 1.561-3.048 1.561-2.961 0-3.73-.823-3.904-4.357h11.448c.175-1.04.263-2.06.285-3.078Zm-11.711-.672c.043-2.667 1.118-3.642 3.684-3.642 2.456 0 3.443.997 3.531 3.642h-7.215Zm14.496-6.46v18.101h4.782V9.755h5.746V5.702h-5.746v-.52c.043-1.106.329-1.432 1.25-1.432h5.22V.022H78.05C74.212 0 72.413 1.17 72.413 6.525Zm-28.16 18.08h-4.781V5.68h11.887v4.444h-7.106v14.481Z" clip-rule="evenodd"/></g><defs><clipPath id="a"><path fill="#fff" d="M0 0h100v25.126H0z"/></clipPath></defs></svg>
